!!!COM: Bach, Johann Sebastian
!!!CDT: 1685/3//-1750/7/28/
!!!OTL@@DE: Meinen Jesum lass ich nicht
!!!AGN: 4-Part Chorale
!!!SCT: BH 299
!!!SCT: BWV 380
**harm	**root	**kern	**kern	**kern	**kern
!	!	!bass	!tenor	!alto	!soprno
*	*Iorgan	*Iorgan	*Iorgan	*Iorgan	*Iorgan
*M4/4	*M4/4	*M4/4	*M4/4	*M4/4	*M4/4
*met(c)	*met(c)	*met(c)	*met(c)	*met(c)	*met(c)
*MM60	*MM60	*MM60	*MM60	*MM60	*MM60
*k[b-e-]	*k[b-e-]	*k[b-e-]	*k[b-e-]	*k[b-e-]	*k[b-e-]
*B-:	*B-:	*B-:	*B-:	*B-:	*B-:
=1-	=1-	=1-	=1-	=1-	=1-
I	4EE-	8BB-	4B-	4d	4f
.	.	8C	.	.	.
Ib	4EE-	8D	4B-	4d	4f
.	.	8BB-	.	.	.
IV	4AA-	8E-	4G	4B-	4g
.	.	8D	.	.	.
iib	4FF	8E-	4c	4e-	4g
.	.	8C	.	.	.
=2	=2	=2	=2	=2	=2
V7	4BB-	4F	8c	8e-	4a
.	.	.	8B-	8d	.
V7	4BB-	4FF	8c	4e-	8a
.	.	.	8A	.	16b-
.	.	.	.	.	16cc
I;	2EE-;	2BB-;	2F;	2d;	2b-;
=3	=3	=3	=3	=3	=3
V	4BB-	8FF	8A	4f	4cc
.	.	8GG	8B-	.	.
Vb	4BB-	8AA	8c	8f	4cc
.	.	8FF	8A	8e-	.
vi	4CC	8GG	8A	4.d	4b-
.	.	8AA	16G	.	.
.	.	.	16F#	.	.
vi	8CC	8BB-	4G	.	4b-
V7/V	8FF	8C	.	8e	.
=4	=4	=4	=4	=4	=4
iii	4GG	8D	4F	8f	4a
.	.	8C	.	8e	.
I	8EE-	8BB-	4F	8d	8g
vi7	8CC	8GG	.	8B-	16a
.	.	.	.	.	16b-
V/V	4FF	4C	8F	4.c	2g
.	.	.	8D	.	.
V/V	4FF	4CC	4E	.	.
.	.	.	.	8B-	.
=5	=5	=5	=5	=5	=5
V;	2BB-;	2FF;	2C;	2A;	2f;
I	4EE-	8BB-	8D	4B-	4f
.	.	8C	8E-y	.	.
Ib	4EE-	8D	8F	4B-	4f
.	.	8BB-	8D	.	.
=6	=6	=6	=6	=6	=6
IV	4AA-	8E-	8E-	4B-	4g
.	.	8D	8F	.	.
ii	4FF	8C	4G	4e-	4g
.	.	8BB-	.	.	.
V7b	8BB-	8AA	8C	8e-	4f
viio/ii	8EE	8BB	8D	8d	.
ii	4FF	4C	8E-	4c	8e-
.	.	.	8F	.	8d
!!linebreak: 2
=7	=7	=7	=7	=7	=7
VI;	2CC;	2GG;	2G;	2B;	2d;
viiob/II	4EE	8D	8F	8B	4f
.	.	8C	8E-	8c	.
V7b/II	4CC	8BB	4D	8d	4f
.	.	8GG	.	8B	.
=8	=8	=8	=8	=8	=8
ii	4FF	8C	4E-	4G	4e-
.	.	8BB-y	.	.	.
V7b	4BB-	8AA	4F	8c	4e-
.	.	8FF	.	8A	.
I	4EE-	8BB-	4F	4B-	4d
.	.	8D	.	.	.
ii7b	8FF	8E-	8G	4B-	8c
ii7	8FF	8C	8E-	.	16d
.	.	.	.	.	16e-
=9	=9	=9	=9	=9	=9
V	4BB-	4F	8F	4B-	2c
.	.	.	8D	.	.
V7	4BB-	4FF	4E-	4A	.
I;	2EE-;	2BB-;	2D;	2F;	2B-;
=10	=10	=10	=10	=10	=10
I	4EE-	8B-	4B-	4d	4f
.	.	8A-	.	.	.
vi7	4CC	8G	4B-	4d	4f
.	.	8F	.	.	.
IV	4AA-	8E-	4B-	4e-	4g
.	.	8D	.	.	.
ii	4FF	8C	4c	8e-	4g
.	.	8BB-	.	8d	.
=11	=11	=11	=11	=11	=11
viiob/vi	4BB	8AA	8F#	4c	4a
.	.	8GG	8G	.	.
V/vi	8GG	8FF#	8A	4d	8a
V/vi	8GG	8DD	8F#	.	16b-
.	.	.	.	.	16cc
vi;	2CC;	2GG;	2G;	2d;	2b-;
=12	=12	=12	=12	=12	=12
I	4EE-	8BB-	4D	4B-	4f
.	.	8AA-	.	.	.
vi7	4CC	8GG	4D	4B-	8f
.	.	8FF	.	.	16g
.	.	.	.	.	16a-
IV	8AA-	8EE-	8E-	8B-	8g
V	8BB-	8FF	8C	8A	8f
IVb	8AA-	8GG	8BB-	4B-	8e-
Ic	8EE-	8FF	8F	.	8d
=13	=13	=13	=13	=13	=13
ii7b	4FF	4EE-	4G	4B-	8c
.	.	.	.	.	16d
.	.	.	.	.	16e-
V	4BB-	4FF	8F	4A	4c
.	.	.	8E-	.	.
I;	2EE-;	2BB-;	2D;	2F;	2B-;
==	==	==	==	==	==
*-	*-	*-	*-	*-	*-
!!chor2scor: -l 2 -s 0.6 -o %b.pmx
!!!YEC: Copyright 1994, David Huron
!!!YEC: Changes/Additions 2001 by Craig Stuart Sapp
!!!YEN: United States of America
!!!SMA: 371 Bach Chorales, edited by Ludwig Erk, C.F. Peters
!!!PDT: 1850, 1865
!!!ONB: Harmony and Root analysis done manually
